assets/Leo/Flat/leo_flat.svg

<svg width="32" height="32" viewBox="0 0 32 32" fill="none" xmlns="http://www.w3.org/2000/svg">
<path d="M2 6C2 3.79086 3.79086 2 6 2H26C28.2091 2 30 3.79086 30 6V26C30 28.2091 28.2091 30 26 30H6C3.79086 30 2 28.2091 2 26V6Z" fill="#8D65C5"/>
<path d="M24.64 22.56C24.25 22.7 24 23.08 24 23.5C24 24.62 23.07 25.53 21.94 25.5C20.78 25.47 19.92 24.43 20.01 23.27C20.04 22.85 20.16 22.44 20.35 22.07L24.45 14.2C24.47 14.17 24.48 14.14 24.5 14.1C24.83 13.28 25 12.41 25 11.51C25.01 7.70995 22.03 4.61995 18.23 4.48995C14.27 4.37995 11 7.55995 11 11.5C11 12.2 11.1 12.88 11.3 13.53C11.18 13.52 11.05 13.51 10.93 13.51C8.11999 13.51 5.85999 15.87 6.00999 18.71C6.13999 21.21 8.15999 23.23 10.66 23.36C13.5 23.51 15.86 21.25 15.86 18.44C15.86 17.11 15.33 15.9 14.47 15.01C14.12 14.65 13.81 14.26 13.58 13.82C13.2 13.11 13 12.32 13 11.5C13 8.73995 15.24 6.49995 18 6.49995C20.76 6.49995 23 8.73995 23 11.5C23 12.13 22.88 12.74 22.66 13.32L18.58 21.15C18.2 21.87 18 22.69 18 23.5C18 25.71 19.79 27.5 22 27.5C24.21 27.5 26 25.71 26 23.5C26 22.83 25.34 22.32 24.64 22.56ZM10.93 21.38C9.30999 21.38 7.99999 20.06 7.99999 18.45C7.99999 16.84 9.30999 15.52 10.93 15.52C12.55 15.52 13.86 16.83 13.86 18.45C13.86 20.07 12.54 21.38 10.93 21.38Z" fill="white"/>
</svg>

<svg xmlns="http://www.w3.org/2000/svg" width="32" height="32" fill="none"><path fill="#8D65C5" d="M2 6a4 4 0 0 1 4-4h20a4 4 0 0 1 4 4v20a4 4 0 0 1-4 4H6a4 4 0 0 1-4-4V6Z"/><path fill="#fff" d="M24.64 22.56c-.39.14-.64.52-.64.94 0 1.12-.93 2.03-2.06 2-1.16-.03-2.02-1.07-1.93-2.23.03-.42.15-.83.34-1.2l4.1-7.87c.02-.03.03-.06.05-.1.33-.82.5-1.69.5-2.59.01-3.8-2.97-6.89-6.77-7.02C14.27 4.38 11 7.56 11 11.5c0 .7.1 1.38.3 2.03-.12-.01-.25-.02-.37-.02-2.81 0-5.07 2.36-4.92 5.2a4.93 4.93 0 0 0 4.65 4.65c2.84.15 5.2-2.11 5.2-4.92 0-1.33-.53-2.54-1.39-3.43-.35-.36-.66-.75-.89-1.19-.38-.71-.58-1.5-.58-2.32 0-2.76 2.24-5 5-5a5.002 5.002 0 0 1 4.66 6.82l-4.08 7.83c-.38.72-.58 1.54-.58 2.35 0 2.21 1.79 4 4 4s4-1.79 4-4c0-.67-.66-1.18-1.36-.94Zm-13.71-1.18C9.31 21.38 8 20.06 8 18.45s1.31-2.93 2.93-2.93 2.93 1.31 2.93 2.93-1.32 2.93-2.93 2.93Z"/></svg>
